X:1
T:Fager er jorda
T:Fager er jorda
T:ACCORDION
Z:Accordion
%%score { ( 1 3 ) | 2 }
L:1/8
Q:1/4=92
M:4/4
K:D
V:1 treble nm="Piano" snm="Pno."
V:3 treble 
V:2 bass 
V:1
"D""^Andante" d4"CHm" d2 d2 |"G" (e2"A" c2)"D" d4 | f2 f2"CHm" f2 f2 |"G" (g2 e2)"D" f4 | %4
 a4"G" (d'2 b2) |"D" a4 g2 f2 |"G" g4"D" f4 |"A" e8 |"D" a4"CH" b2 a2 |"Em" (a2 f2) g4 | %10
"A" g4 a2 g2 |"C7" (g2 e2)"D" f2 f2 |"CHm" f2 f2"D" a2"G" g2 |"A" f4"C7" e4 |"D" d8 || %15
"D" [Ad]4"CHm" [Fd]2 [Fd]2 |"G" ([Ge]2"A" [Ac]2)"D" [Fd]4 | [df]2 [cf]2"CHm" [Bf]2 [Af]2 | %18
"G" ([Gg]2 [ce]2)"D" [df]4 | [fa]4"G" (d'2 b2) |"D" a4 (g2 f2) |"G" g4"D" f4 |"A" [Ae]8 | %23
"D" a4"CH" b2 a2 |"Em" ([fa]2 [^df]2) [eg]2 z2 |"A" g4 a2 g2 | ([eg]2 [ce]2)"D" ([df]2 [cf]2) | %27
"CHm" [Bf]2 [Af]2"G" [Ga]2 [Gg]2 |"D" f4"G" e4 |"D" d8 |] %30
V:2
"^D" [D,,D]4"^Hm" [B,,B,]4 |"^G" ([G,,G,]2 A,,2)"^D" [D,,D]4 | D,2 C,2 B,,2 A,,2 | %3
"^G" ([G,,G,]2 A,,2)"^D" [D,,D]4 |"^D" [D,,D]4"^G" [D,,G,]4 |"^D" [F,,D]4 E,,2 D,,2 | %6
 (B,,,2 C,,2 D,,2) D,,2 |"^A" [A,,A,]8 | D,,2 =C,,2 B,,,2"^H" [^D,,B,]2 | %9
 E,,2-"^Em" [E,,E,]4 D,,2 |"^A" [C,A,]2 B,,2"^A" [A,,A,]3 z |"^A" [C,A,]4"^D" [D,,D]2 C,,2 | %12
"^Hm" [B,,B,]2 A,,2"^D" ([F,,D]2"^G" [G,,G,]2) |"^A" [A,,A,]4 (D,,2"^A" [C,,A,]2) |"^D" [D,,D]8 || %15
"^D" [D,,D]4 B,,2 A,,2 |"^G" ([G,,G,]2 A,,2)"^D" [D,,D]4 | D,2 C,2 B,,2 A,,2 | %18
"^G" ([G,,G,]2 A,,2)"^D" [D,,D]4 |"^D" [D,,D]4"^G" [D,,G,]4 |"^D" [F,,D]4 E,,2 D,,2 | %21
 (B,,,2 C,,2 D,,2) D,,2 |"^A" [A,,A,]8 | D,,2 C,,2 B,,,2"^H" [^D,,B,]2 | E,,2-"^Em" [E,,E,]4 D,,2 | %25
 C,2 B,,2"^A" [A,,A,]3 z | C,2"^A" A,2 D,2 C,2 |"^Hm" [B,,B,]3 z"^G" [G,,G,]3 z | %28
"^D" [F,,D]4 (D,,2"^G" [C,,A,]2) |"^D" [D,,D]8 |] %30
V:3
 x8 | x8 | x8 | x8 | x8 | x8 | x8 | x8 | x8 | x8 | x8 | x8 | x8 | x8 | x8 || x8 | x8 | x8 | x8 | %19
 x4 g4 | d4 d4 | (B2 c2 d2 d2) | x8 | (f2 e2 ^d2) f2 | x8 | e2 d2 c4 | x8 | x8 | A4 (A2 G2) | F8 |] %30

